site/plugins/site/icons/document.svg

<svg viewBox="0 0 16 16" width="16" height="16" class="icon icon-document">
  <path d="M8 5v-1h-4v1h4zM4 8h7v-1h-7v1zM4 10h7v-1h-7v1zM4 12h7v-1h-7v1zM14 4.5v10.5h-12v-14h8.5l3.5 3.5z"></path>
</svg>

<svg width="16" height="16" class="icon icon-document"><path d="M8 5V4H4v1h4zM4 8h7V7H4v1zm0 2h7V9H4v1zm0 2h7v-1H4v1zm10-7.5V15H2V1h8.5L14 4.5z"/></svg>
